X: 41
$SmallLMargin
$SmallRMargin
T: Solomon Levi #2
I: Solomon Levi	S-S	G	square
C: S-S
M: 6/8
Z: Transcribed to abc by Mary Lou Knack
R: square
K: G
"G"d2d d2d| d2d Bcd| "C"e2e e2e| e3-e2 e| \
"D7"f2f f2f| f2f f2e| "G"e2d d2e| d3 B2c|
"G"d2d d2d| d2d Bcd| "C"e2e e2e| e3-e2 e| \
"D7"f2f f2f| f2f f2e| ddd e2f| "G"g3 a"  fine"z|]
\
"B7"b3 fga| "Em"g3 e3| "B7"bc'b agf| "Em"e3-e2z| \
"A7"a3 e2g| "D"f3 d3| "A7"aba gfe| "D7"ded cBA|]
% %text Formerly J-55
% %text 12/23/98

#include "RightHeader.h"
$SmallLMargin
$SmallRMargin
% %scale .8
